public/avatar/item0/64.svg

<svg xmlns:xlink="http://www.w3.org/1999/xlink" height="58.65" width="49.15" xmlns="http://www.w3.org/2000/svg"><use height="8.95" transform="translate(8.1 33.7)" width="31.25" xlink:href="#a"/><defs><g id="a" fill-rule="evenodd"><path d="M-13.6 19.6q-2.3-1.75-2.4-3.3l.2-.4.4-.1 6.2.7.45.15.1.45-.85 3.9-.4.35q-1.2.2-3.7-1.75" fill="#333435" transform="translate(16 -15.6)"/><path d="M-10.35 20.3q-3.4-1-4.45-3.5l5.05.7-.6 2.8" fill="#fff" transform="translate(16 -15.6)"/><path d="m-11.4 17.35.85.05 1 .05-.55 2.2-.2.75-.75-.35-1.05-.7.25.05 1 .1-1.4-.9 1.55.15-.25-.15-.85-.55 1-.05q-.95-.45-1.1-.7l.5.05" fill="#abb8d9" transform="translate(16 -15.6)"/><path d="m9.4 21.7-.4-.35-1.05-3.85q0-.3.15-.45.2-.2.4-.15l6.15-1 .45.1.15.4q0 1.5-2.2 3.4-2.35 2.05-3.65 1.9" fill="#333435" transform="translate(16 -15.6)"/><path d="m9.85 20.65-.75-2.8 5-.9q-.85 2.45-4.25 3.7" fill="#fff" transform="translate(16 -15.6)"/><path d="m9.85 17.75.9-.1.45-.1-1.05.75q.4.25 1 0l-.8.6-.25.15q.65.4 1.55-.25-.4.5-1.35 1l.95-.1.25-.1-1 .75-.75.4-.85-2.9 1-.15-.05.05" fill="#abb8d9" transform="translate(16 -15.6)"/><path d="m1.3 16.2 6.3-.55.5.15q.6.6 1.25 3.45.7 3.05.1 3.75-.95 1.1-7.8 1.5-7.9.45-11.8-2.1l-.15-.2q-.9-1.85.7-5.7.3-.7.7-.85l.2-.05 10 .6" fill="#414244" transform="translate(16 -15.6)"/><path d="M8.7 22.25q-12.2 3.3-18.1-.6-.3-.7.1-2.8.35-2.05.75-2.2 9.75 1.5 15.95.05.5.5 1 2.75.55 2.25.3 2.8" fill="#fff" transform="translate(16 -15.6)"/><path d="m-8.4 17.2 1.45.2-.6.15 1.1 1.15-1.25.6.4.5.8.8q.3.25.15.35l-.95.3 1.35.75q-1.85-.2-3.1-.9l1.7-.6-1.55-1.45 1.65-.65-1.15-1.2m11.5 5.3q1.5-.05 3.1-1l-2.4-.15 1.5-.65 1.1-.65-2.75-.1 1.5-.9.95-.85-2.3-.1-.8-.25 2.1-.25 1.9-.4q.1.4-1 1.95l1.75.05Q7.3 20.3 6.4 21l1.55.2q-.05 1.05-2.35 1.25l-2.5.05" fill="#abb8d9" transform="translate(16 -15.6)"/></g></defs></svg>

<?xml version="1.0" encoding="UTF-8" standalone="no"?>
<svg xmlns:xlink="http://www.w3.org/1999/xlink" height="58.65px" width="49.15px" xmlns="http://www.w3.org/2000/svg">
  <g transform="matrix(1.0, 0.0, 0.0, 1.0, 24.1, 18.1)">
    <use height="8.95" transform="matrix(1.0, 0.0, 0.0, 1.0, -16.0, 15.6)" width="31.25" xlink:href="#shape0"/>
  </g>
  <defs>
    <g id="shape0" transform="matrix(1.0, 0.0, 0.0, 1.0, 16.0, -15.6)">
      <path d="M-13.6 19.6 Q-15.9 17.85 -16.0 16.3 L-15.8 15.9 -15.4 15.8 -9.2 16.5 -8.75 16.65 -8.65 17.1 -9.5 21.0 -9.9 21.35 Q-11.1 21.55 -13.6 19.6" fill="#333435" fill-rule="evenodd" stroke="none"/>
      <path d="M-10.35 20.3 Q-13.75 19.3 -14.8 16.8 L-9.75 17.5 -10.35 20.3" fill="#ffffff" fill-rule="evenodd" stroke="none"/>
      <path d="M-11.4 17.35 L-10.55 17.4 -9.55 17.45 -10.1 19.65 -10.3 20.4 -11.05 20.05 -12.1 19.35 -11.85 19.4 -10.85 19.5 -12.25 18.6 -10.7 18.75 -10.95 18.6 -11.8 18.05 -10.8 18.0 Q-11.75 17.55 -11.9 17.3 L-11.4 17.35" fill="#abb8d9" fill-rule="evenodd" stroke="none"/>
      <path d="M9.4 21.7 L9.0 21.35 7.95 17.5 Q7.95 17.2 8.1 17.05 8.3 16.85 8.5 16.9 L14.65 15.9 15.1 16.0 15.25 16.4 Q15.25 17.9 13.05 19.8 10.7 21.85 9.4 21.7" fill="#333435" fill-rule="evenodd" stroke="none"/>
      <path d="M9.85 20.65 L9.1 17.85 14.1 16.95 Q13.25 19.4 9.85 20.65" fill="#ffffff" fill-rule="evenodd" stroke="none"/>
      <path d="M9.85 17.75 L10.75 17.65 11.2 17.55 10.15 18.3 Q10.55 18.55 11.15 18.3 L10.35 18.9 10.1 19.05 Q10.75 19.45 11.65 18.8 11.25 19.3 10.3 19.8 L11.25 19.7 11.5 19.6 10.5 20.35 9.75 20.75 8.9 17.85 9.9 17.7 9.85 17.75" fill="#abb8d9" fill-rule="evenodd" stroke="none"/>
      <path d="M1.3 16.2 L7.6 15.65 8.1 15.8 Q8.7 16.4 9.35 19.25 10.05 22.3 9.45 23.0 8.5 24.1 1.65 24.5 -6.25 24.95 -10.15 22.4 L-10.3 22.2 Q-11.2 20.35 -9.6 16.5 -9.3 15.8 -8.9 15.65 L-8.7 15.6 1.3 16.2" fill="#414244" fill-rule="evenodd" stroke="none"/>
      <path d="M8.7 22.25 Q-3.5 25.55 -9.4 21.65 -9.7 20.95 -9.3 18.85 -8.95 16.8 -8.55 16.65 1.2 18.15 7.4 16.7 7.9 17.2 8.4 19.45 8.95 21.7 8.7 22.25" fill="#ffffff" fill-rule="evenodd" stroke="none"/>
      <path d="M-8.4 17.2 L-6.95 17.4 -7.55 17.55 -6.45 18.7 -7.7 19.3 -7.3 19.8 -6.5 20.6 Q-6.2 20.85 -6.35 20.95 L-7.3 21.25 -5.95 22.0 Q-7.8 21.8 -9.05 21.1 L-7.35 20.5 -8.9 19.05 -7.25 18.4 -8.4 17.2" fill="#abb8d9" fill-rule="evenodd" stroke="none"/>
      <path d="M3.1 22.5 Q4.6 22.45 6.2 21.5 L3.8 21.35 5.3 20.7 6.4 20.05 3.65 19.95 5.15 19.05 6.1 18.2 3.8 18.1 3.0 17.85 5.1 17.6 7.0 17.2 Q7.1 17.6 6.0 19.15 L7.75 19.2 Q7.3 20.3 6.4 21.0 L7.95 21.2 Q7.9 22.25 5.6 22.45 L3.1 22.5" fill="#abb8d9" fill-rule="evenodd" stroke="none"/>
    </g>
  </defs>
</svg>
